images/logo.svg

<svg height="209.38" viewBox="0 0 241.54 209.38" width="241.54" xmlns="http://www.w3.org/2000/svg"><circle cx="115.15" cy="104.17" r="103.26"/><path d="m44.18 41.14h-.18v133.72h-8.85v-149.14h10.57l60.8 130.2h.22v-130.2h8.81v149.14h-8.81zm152.66 133.72-32.16-70.94h-20.49v70.94h-9v-149.14h27.54c26.22 0 38.55 12.34 38.55 38.11 0 22-10.35 34.81-27.76 38.33l33.71 72.7zm-4.63-110.37c0-20.93-9.47-30.62-29.52-30.62h-18.5v62.13h19.61c17.84 0 28.41-10.58 28.41-31.51z" fill="#fff"/></svg>

<svg id="Layer_1" data-name="Layer 1" xmlns="http://www.w3.org/2000/svg" viewBox="0 0 241.54 209.38"><defs><style>.cls-1{fill:#fff;}</style></defs><title>logo</title><circle cx="115.15" cy="104.17" r="103.26"/><path class="cls-1" d="M44.18,41.14H44V174.86H35.15V25.72H45.72l60.8,130.2h.22V25.72h8.81V174.86h-8.81Z"/><path class="cls-1" d="M196.84,174.86l-32.16-70.94H144.19v70.94h-9V25.72h27.54c26.22,0,38.55,12.34,38.55,38.11,0,22-10.35,34.81-27.76,38.33l33.71,72.7ZM192.21,64.49c0-20.93-9.47-30.62-29.52-30.62H144.19V96H163.8C181.64,96,192.21,85.42,192.21,64.49Z"/></svg>
